!!!OTL: Kuckuks Fall
!!!ARE: Europa, Mitteleuropa, Deutschland
!!!SCT: A0168
!!!YEM: Copyright 1995, estate of Helmut Schaffrath.
**kern
*ICvox
*Ivox
*M3/2
*k[b-e-]
*g:
{2g
=1
1g
2g
=2
1g
2a
=3
1b-
2b-
=4
1b-}
{2b-
=5
1b-
2b-
=6
2dd
1cc
=7
1.b-
=8
1b-}
{2b-
=9
1b-
2b-
=10
1b-
2b-
=11
1a
2g
=12
1fn}
{2g
=13
1a
2b-
=14
1cc
2b-
=15
2g
1a
=16
1g}
==
!!!AGN: Romanze, Ballade, Lied
!! Joh. Ott III 1544 No. 30
!!!ONB: ESAC (Essen Associative Code) Database: ALTDEU
!!!AMT: simple triple
!!!AIN: vox
!!!EED: Helmut Schaffrath
!!!EEV: 1.0
*-
